formas-de-pagamento/caixa-v2.svg

<svg enable-background="new 0 0 60 40" height="40" viewBox="0 0 60 40" width="60" xmlns="http://www.w3.org/2000/svg"><switch><foreignObject height="1" requiredExtensions="http://ns.adobe.com/AdobeIllustrator/10.0/" width="1"/><g><path d="m60 35c0 2.75-2.25 5-5 5h-50c-2.75 0-5-2.25-5-5v-30c0-2.75 2.25-5 5-5h50c2.75 0 5 2.25 5 5z" fill="#fff"/><path d="m55 0h-50c-2.75 0-5 2.25-5 5v30c0 2.75 2.25 5 5 5h50c2.75 0 5-2.25 5-5v-30c0-2.75-2.25-5-5-5zm0 1c2.206 0 4 1.794 4 4v30c0 2.206-1.794 4-4 4h-50c-2.206 0-4-1.794-4-4v-30c0-2.206 1.794-4 4-4z" fill="#d0d0d0" opacity=".6"/><path d="m21.63 18.357-1.117 2.783h1.545l-.423-2.795zm-5.915 6.388 4.581-9.431h3.463l1.932 9.431h-3.041l-.223-1.257h-2.95l-.679 1.257zm11.414 0 1.327-9.431h3.064l-1.327 9.431zm20.377-6.4-1.121 2.795h1.545zm-5.921 6.4 4.581-9.431h3.462l1.932 9.431h-3.041l-.223-1.257h-2.95l-.679 1.257zm-6.773-4.41h3.839l2.631 4.357h-3.839z" fill="#116bb6"/><path d="m35.211 19.666h3.968l3.446-4.338h-3.968zm-3.968 5.052h3.968l3.446-4.392h-3.968z" fill="#f29a25"/><path d="m32.674 15.275h3.704l2.537 4.391h-3.704zm-16.868.377-.295 2.774c-1.129-1.558-3.746-.483-3.952 1.458-.261 2.463 2.258 3.038 3.629 1.587l-.296 2.78c-.409.201-.809.357-1.204.463-.384.104-.779.161-1.177.17-.491.01-.936-.041-1.337-.154-.391-.106-.759-.284-1.084-.525-.619-.452-1.066-1.028-1.342-1.728-.275-.702-.366-1.495-.272-2.38.076-.712.255-1.361.541-1.949.283-.589.676-1.123 1.175-1.607.472-.462.987-.811 1.543-1.048.554-.235 1.16-.36 1.814-.374.386-.009.771.031 1.146.121.374.087.743.227 1.111.412z" fill="#116bb6"/></g></switch></svg>

<?xml version="1.0" encoding="UTF-8"?>
<svg width="60px" height="40px" viewBox="0 0 60 40" version="1.1" xmlns="http://www.w3.org/2000/svg" xmlns:xlink="http://www.w3.org/1999/xlink">
    <!-- Generator: Sketch 52.4 (67378) - http://www.bohemiancoding.com/sketch -->
    <title>Artboard</title>
    <desc>Created with Sketch.</desc>
    <g id="Artboard" stroke="none" stroke-width="1" fill="none" fill-rule="evenodd">
        <g id="caixa-v2">
            <path d="M60,35 C60,37.75 57.75,40 55,40 L5,40 C2.25,40 0,37.75 0,35 L0,5 C0,2.25 2.25,0 5,0 L55,0 C57.75,0 60,2.25 60,5 L60,35 Z" id="Path" fill="#FFFFFF"></path>
            <path d="M55,0 L5,0 C2.25,0 0,2.25 0,5 L0,35 C0,37.75 2.25,40 5,40 L55,40 C57.75,40 60,37.75 60,35 L60,5 C60,2.25 57.75,0 55,0 Z M55,1 C57.206,1 59,2.794 59,5 L59,35 C59,37.206 57.206,39 55,39 L5,39 C2.794,39 1,37.206 1,35 L1,5 C1,2.794 2.794,1 5,1 L55,1 Z" id="Shape" fill="#D0D0D0" fill-rule="nonzero" opacity="0.6"></path>
            <path d="M21.63,18.357 L20.513,21.14 L22.058,21.14 L21.635,18.345 L21.63,18.357 Z M15.715,24.745 L20.296,15.314 L23.759,15.314 L25.691,24.745 L22.65,24.745 L22.427,23.488 L19.477,23.488 L18.798,24.745 L15.715,24.745 Z M27.129,24.745 L28.456,15.314 L31.52,15.314 L30.193,24.745 L27.129,24.745 Z M47.506,18.345 L46.385,21.14 L47.93,21.14 L47.506,18.345 Z M41.585,24.745 L46.166,15.314 L49.628,15.314 L51.56,24.745 L48.519,24.745 L48.296,23.488 L45.346,23.488 L44.667,24.745 L41.585,24.745 Z M34.812,20.335 L38.651,20.335 L41.282,24.692 L37.443,24.692 L34.812,20.335 Z" id="Shape" fill="#116BB6" fill-rule="nonzero"></path>
            <path d="M35.211,19.666 L39.179,19.666 L42.625,15.328 L38.657,15.328 L35.211,19.666 Z M31.243,24.718 L35.211,24.718 L38.657,20.326 L34.689,20.326 L31.243,24.718 Z" id="Shape" fill="#F29A25" fill-rule="nonzero"></path>
            <path d="M32.674,15.275 L36.378,15.275 L38.915,19.666 L35.211,19.666 L32.674,15.275 Z M15.806,15.652 L15.511,18.426 C14.382,16.868 11.765,17.943 11.559,19.884 C11.298,22.347 13.817,22.922 15.188,21.471 L14.892,24.251 C14.483,24.452 14.083,24.608 13.688,24.714 C13.304,24.818 12.909,24.875 12.511,24.884 C12.02,24.894 11.575,24.843 11.174,24.73 C10.783,24.624 10.415,24.446 10.09,24.205 C9.471,23.753 9.024,23.177 8.748,22.477 C8.473,21.775 8.382,20.982 8.476,20.097 C8.552,19.385 8.731,18.736 9.017,18.148 C9.3,17.559 9.693,17.025 10.192,16.541 C10.664,16.079 11.179,15.73 11.735,15.493 C12.289,15.258 12.895,15.133 13.549,15.119 C13.935,15.11 14.32,15.15 14.695,15.24 C15.069,15.327 15.438,15.467 15.806,15.652 Z" id="Shape" fill="#116BB6" fill-rule="nonzero"></path>
        </g>
    </g>
</svg>
